outputs/icons/device/mobile_friendly_sharp.svg

<svg xmlns="http://www.w3.org/2000/svg" width="1200" height="1200" fill="none"><g clip-path="url(#a)"><path fill="#000" d="M1049.995 50H349.997v250h100V200h499.998v800H449.997V900h-100v250h699.998zM350.497 673.5 222.997 546l-63.5 63.5 190.5 190.5 359.498-359.5-63.5-63.5z"/></g><defs><clipPath id="a"><path fill="#fff" d="M0 0h1200v1200H0z"/></clipPath></defs></svg>

<svg width="1200" height="1200" viewBox="0 0 1200 1200" fill="none" xmlns="http://www.w3.org/2000/svg"><g clip-path="url(#clip0_231_4424)"><path d="M1049.995 50H349.997V300H449.997V200H949.995V1000H449.997V900H349.997V1150H1049.995V50ZM350.497 673.5L222.997 546L159.497 609.5L349.997 800L709.495 440.5L645.995 377L350.497 673.5Z" fill="#1D1E23"/></g><defs><clipPath id="clip0_231_4424"><path width="24" fill="white" d="M0 0H1200V1200H0V0z"/></clipPath></defs></svg>
